%generated from file `metapost-mpostinl' by mpostinl.sty
%---------------------------------------
%l.49
prologues:=2;

verbatimtex
%&latex
etex

verbatimtex
\documentclass{article}
etex


%---------------------------------------
%l.49
u:=10pt;
  

%---------------------------------------
%l.52
verbatimtex
\usepackage {amssymb,bm,xcolor}
    \usepackage{CJKutf8}
    \AtBeginDocument{\begin{CJK*}{UTF8}{gkai}}
    \AtEndDocument{\end{CJK*}}
  
etex

%---------------------------------------
%l.64
verbatimtex
\begin{document}
etex

%---------------------------------------
%l.64
filenametemplate "images/metapost-mpostinl-1.mps";
beginfig(1)
draw fullcircle scaled 10u;
    dotlabel.top(btex 圆心 etex, origin);
  
endfig;

%---------------------------------------
%l.72
verbatimtex
\end{document}
etex

%---------------------------------------
%l.72
end

